public/exp1.svg

<svg width="95" height="87" viewBox="0 0 95 87" fill="none" xmlns="http://www.w3.org/2000/svg">
<path d="M86.4612 86.9998C76.5969 79.9696 63.0856 75.6196 48.1683 75.6196C33.273 75.6196 19.7618 79.9696 9.89746 86.9998H86.4612Z" fill="white"/>
<path d="M90.7451 82.934C88.7898 83.1976 62.734 82.934 62.734 82.934L62.1189 80.2098L59.7461 69.4887C59.7461 69.4887 69.3468 69.972 68.7536 69.247C68.1605 68.544 67.1059 57.5153 61.7673 55.8456C56.4287 54.1759 48.1682 53.9343 48.1682 53.9343V32.9753L55.7916 27.8564C59.4825 32.1625 79.1672 43.1253 81.5619 48.376C83.9565 53.6047 93.3595 66.9402 94.2163 72.1689C95.0951 77.4196 92.7004 82.6923 90.7451 82.934Z" fill="url(#paint0_linear_3307_569)"/>
<path style="mix-blend-mode:multiply" d="M90.7449 82.9345C88.7896 83.1981 62.7338 82.9345 62.7338 82.9345L62.1187 80.2103C66.9519 80.0126 74.0261 79.6391 80.5291 79.0898C91.8214 78.1232 94.2161 72.1694 94.2161 72.1694C95.0949 77.4201 92.7002 82.6928 90.7449 82.9345Z" fill="url(#paint1_linear_3307_569)"/>
<path style="mix-blend-mode:multiply" d="M86.4612 69.8639C86.4612 69.8639 80.5734 57.0557 74.5977 53.7822L76.487 68.5018L86.4612 69.8639Z" fill="url(#paint2_linear_3307_569)"/>
<path d="M74.597 71.1145C74.597 71.1145 82.8356 68.5661 90.2832 72.2569C90.2832 72.2569 88.3939 68.5221 80.4629 66.8964C80.4629 66.8964 75.4099 50.2655 69.4342 49.4965C63.4585 48.7056 63.1509 72.2569 63.1509 72.2569L74.597 71.1145Z" fill="#00042D"/>
<path d="M38.6118 27.8564C34.9209 32.1625 15.2362 43.1253 12.8416 48.376C10.4469 53.6047 1.04394 66.9402 0.187131 72.1689C-0.691649 77.4196 1.70302 82.6923 3.65831 82.934C5.6136 83.1976 31.6694 82.934 31.6694 82.934L34.6573 69.4887C34.6573 69.4887 25.0566 69.972 25.6498 69.247C26.243 68.544 27.2975 57.5153 32.6361 55.8456C37.9747 54.1759 46.2352 53.9343 46.2352 53.9343V32.9753L38.6118 27.8564Z" fill="url(#paint3_linear_3307_569)"/>
<path style="mix-blend-mode:multiply" d="M3.65831 82.9345C5.6136 83.1981 31.6694 82.9345 31.6694 82.9345L32.2846 80.2103C27.4513 80.0126 20.3771 79.6391 13.8741 79.0898C2.5818 78.1232 0.187131 72.1694 0.187131 72.1694C-0.691649 77.4201 1.70302 82.6928 3.65831 82.9345Z" fill="url(#paint4_linear_3307_569)"/>
<path style="mix-blend-mode:multiply" d="M7.94165 69.8639C7.94165 69.8639 13.8295 57.0557 19.8052 53.7822L17.9158 68.5018L7.94165 69.8639Z" fill="url(#paint5_linear_3307_569)"/>
<path d="M20.5082 71.1145C20.5082 71.1145 12.2697 68.5661 4.82202 72.2569C4.82202 72.2569 6.7114 68.5221 14.6204 66.8964C14.6204 66.8964 19.6734 50.2655 25.6711 49.4965C31.6468 48.7056 31.9324 72.2569 31.9324 72.2569L20.5082 71.1145Z" fill="#00042D"/>
<path d="M66.9961 27.0671C66.7105 33.2844 65.634 46.4002 61.2621 49.9593C57.9887 52.6176 52.0569 50.9479 47.619 50.9479C42.4342 50.9479 37.1835 53.4524 33.7123 49.9593C30.1972 46.4442 28.4836 32.5155 28.2419 27.0671C31.6472 19.7732 39.0509 14.6982 47.619 14.6982C56.2091 14.6982 63.6128 19.7732 66.9961 27.0671Z" fill="url(#paint6_linear_3307_569)"/>
<path style="mix-blend-mode:multiply" d="M29.0996 20.8925C29.0996 30.0318 31.4284 39.6105 33.2518 43.8506C35.0973 48.0907 41.2048 55.802 47.6419 56.9444C54.0789 58.0868 60.3842 48.7498 62.4054 43.2135C65.7008 34.2939 66.0084 19.6622 66.0084 19.6622C66.0084 19.6622 55.507 10.1054 45.6866 11.0062C35.8882 11.885 29.0996 20.8925 29.0996 20.8925Z" fill="url(#paint7_linear_3307_569)"/>
<path d="M33.0754 18.6531C33.0754 25.7273 34.8989 33.131 36.3489 36.4045C37.7769 39.6999 41.8193 46.5544 47.6192 46.5544C52.7381 46.5544 57.6154 40.2052 59.1972 35.9431C61.7896 29.0228 62.0312 17.6865 62.0312 17.6865C62.0312 17.6865 53.7927 10.3047 46.1034 10.9858C38.3921 11.6668 33.0754 18.6531 33.0754 18.6531Z" fill="#00042D"/>
<path d="M47.6195 0C40.4794 0 28.2205 14.7635 28.2205 26.0778C28.2205 26.4147 28.2278 26.7442 28.2424 27.0664C31.6477 19.7726 39.0514 14.6976 47.6195 14.6976C56.2096 14.6976 63.6133 19.7726 66.9966 27.0664C67.0113 26.7442 67.0186 26.4147 67.0186 26.0778C67.0186 14.7635 55.0013 0 47.6195 0Z" fill="url(#paint8_linear_3307_569)"/>
<path d="M70.9296 81.7479H24.3103C22.1134 81.7479 20.2679 80.0562 20.0922 77.8592L17.4558 47.5633C17.2361 45.0807 19.1914 42.9497 21.674 42.9497H73.5659C76.0705 42.9497 78.0038 45.0807 77.8061 47.5633L75.1697 77.8592C74.972 80.0562 73.1485 81.7479 70.9296 81.7479Z" fill="white"/>
<path d="M70.9296 83.0662H24.3103C22.1134 83.0662 20.2679 81.3746 20.0922 79.1776L17.4558 48.8817C17.2361 46.3991 19.1914 44.2681 21.674 44.2681H73.5659C76.0705 44.2681 78.0038 46.3991 77.8061 48.8817L75.1697 79.1776C74.972 81.3746 73.1485 83.0662 70.9296 83.0662Z" fill="url(#paint9_linear_3307_569)"/>
<g style="mix-blend-mode:multiply">
<path d="M24.2444 44.2681H21.674C19.1914 44.2681 17.2361 46.3991 17.4558 48.8817L20.0922 79.1776C20.2679 81.3746 22.1134 83.0662 24.3103 83.0662H26.1338L24.2444 44.2681Z" fill="url(#paint10_linear_3307_569)"/>
<path d="M73.5653 44.2681H70.9948L69.1055 83.0662H70.9289C73.1479 83.0662 74.9713 81.3746 75.169 79.1776L77.8054 48.8817C78.0031 46.3991 76.0698 44.2681 73.5653 44.2681Z" fill="url(#paint11_linear_3307_569)"/>
</g>
<defs>
<linearGradient id="paint0_linear_3307_569" x1="7.54111" y1="84.7043" x2="66.9595" y2="-24.9326" gradientUnits="userSpaceOnUse">
<stop stop-color="#FF00C1"/>
<stop offset="1" stop-color="#F4AC24"/>
</linearGradient>
<linearGradient id="paint1_linear_3307_569" x1="69.8756" y1="86.5852" x2="79.9845" y2="64.365" gradientUnits="userSpaceOnUse">
<stop stop-color="#F4D63B" stop-opacity="0"/>
<stop offset="1" stop-color="#5C1CB2"/>
</linearGradient>
<linearGradient id="paint2_linear_3307_569" x1="94.7393" y1="50.4317" x2="90.8769" y2="73.0543" gradientUnits="userSpaceOnUse">
<stop stop-color="#F4D63B" stop-opacity="0"/>
<stop offset="1" stop-color="#5C1CB2"/>
</linearGradient>
<linearGradient id="paint3_linear_3307_569" x1="-23.0239" y1="52.1989" x2="18.1071" y2="-23.6948" gradientUnits="userSpaceOnUse">
<stop stop-color="#FF00C1"/>
<stop offset="1" stop-color="#F4AC24"/>
</linearGradient>
<linearGradient id="paint4_linear_3307_569" x1="24.5276" y1="86.5852" x2="14.4188" y2="64.365" gradientUnits="userSpaceOnUse">
<stop stop-color="#F4D63B" stop-opacity="0"/>
<stop offset="1" stop-color="#5C1CB2"/>
</linearGradient>
<linearGradient id="paint5_linear_3307_569" x1="-0.336458" y1="50.4317" x2="3.52598" y2="73.0543" gradientUnits="userSpaceOnUse">
<stop stop-color="#F4D63B" stop-opacity="0"/>
<stop offset="1" stop-color="#5C1CB2"/>
</linearGradient>
<linearGradient id="paint6_linear_3307_569" x1="-3.03296" y1="75.3936" x2="44.9419" y2="-13.1279" gradientUnits="userSpaceOnUse">
<stop stop-color="#FF00C1"/>
<stop offset="1" stop-color="#F4AC24"/>
</linearGradient>
<linearGradient id="paint7_linear_3307_569" x1="14.2001" y1="55.264" x2="18.5475" y2="13.0333" gradientUnits="userSpaceOnUse">
<stop stop-color="#F4D63B" stop-opacity="0"/>
<stop offset="1" stop-color="#5C1CB2"/>
</linearGradient>
<linearGradient id="paint8_linear_3307_569" x1="-2.75325" y1="75.5087" x2="44.6073" y2="-11.8791" gradientUnits="userSpaceOnUse">
<stop stop-color="#FF00C1"/>
<stop offset="1" stop-color="#F4AC24"/>
</linearGradient>
<linearGradient id="paint9_linear_3307_569" x1="75.3272" y1="43.7404" x2="52.2382" y2="103.267" gradientUnits="userSpaceOnUse">
<stop stop-color="#A76DFC"/>
<stop offset="1" stop-color="#5C1CB2"/>
</linearGradient>
<linearGradient id="paint10_linear_3307_569" x1="109.753" y1="48.2993" x2="108.016" y2="85.0773" gradientUnits="userSpaceOnUse">
<stop stop-color="white" stop-opacity="0"/>
<stop offset="1" stop-color="#5C1CB2"/>
</linearGradient>
<linearGradient id="paint11_linear_3307_569" x1="161.315" y1="50.6403" x2="159.587" y2="87.2169" gradientUnits="userSpaceOnUse">
<stop stop-color="white" stop-opacity="0"/>
<stop offset="1" stop-color="#5C1CB2"/>
</linearGradient>
</defs>
</svg>

<svg xmlns="http://www.w3.org/2000/svg" width="95" height="87" fill="none"><path fill="#fff" d="M86.461 87c-9.864-7.03-23.375-11.38-38.293-11.38-14.895 0-28.406 4.35-38.27 11.38z"/><path fill="url(#a)" d="M90.745 82.934c-1.955.264-28.011 0-28.011 0l-.615-2.724-2.373-10.721s9.6.483 9.008-.242c-.594-.703-1.648-11.732-6.987-13.401-5.338-1.67-13.599-1.912-13.599-1.912V32.975l7.624-5.119c3.69 4.307 23.375 15.27 25.77 20.52 2.395 5.229 11.798 18.564 12.654 23.793.88 5.25-1.516 10.523-3.47 10.765"/><path fill="url(#b)" d="M90.745 82.935c-1.955.263-28.011 0-28.011 0l-.615-2.725c4.833-.197 11.907-.57 18.41-1.12 11.292-.967 13.687-6.92 13.687-6.92.879 5.25-1.516 10.523-3.471 10.764" style="mix-blend-mode:multiply"/><path fill="url(#c)" d="M86.461 69.864s-5.888-12.808-11.863-16.082l1.889 14.72z" style="mix-blend-mode:multiply"/><path fill="#00042D" d="M74.597 71.115s8.239-2.549 15.686 1.142c0 0-1.89-3.735-9.82-5.36 0 0-5.053-16.632-11.029-17.4-5.975-.791-6.283 22.76-6.283 22.76z"/><path fill="url(#d)" d="M38.612 27.856c-3.691 4.307-23.376 15.27-25.77 20.52C10.447 53.605 1.044 66.94.187 72.169c-.879 5.25 1.516 10.523 3.471 10.765 1.956.264 28.011 0 28.011 0l2.988-13.445s-9.6.483-9.007-.242c.593-.703 1.648-11.732 6.986-13.401 5.339-1.67 13.6-1.912 13.6-1.912V32.975z"/><path fill="url(#e)" d="M3.658 82.935c1.956.263 28.011 0 28.011 0l.616-2.725c-4.834-.197-11.908-.57-18.41-1.12C2.581 78.123.186 72.17.186 72.17c-.879 5.25 1.516 10.523 3.471 10.764" style="mix-blend-mode:multiply"/><path fill="url(#f)" d="M7.942 69.864s5.887-12.808 11.863-16.082l-1.89 14.72z" style="mix-blend-mode:multiply"/><path fill="#00042D" d="M20.508 71.115s-8.238-2.549-15.686 1.142c0 0 1.89-3.735 9.798-5.36 0 0 5.053-16.632 11.051-17.4 5.976-.791 6.261 22.76 6.261 22.76z"/><path fill="url(#g)" d="M66.996 27.067c-.285 6.217-1.362 19.333-5.734 22.892-3.273 2.659-9.205.989-13.643.989-5.185 0-10.435 2.504-13.907-.989-3.515-3.515-5.228-17.443-5.47-22.892 3.405-7.294 10.809-12.369 19.377-12.369 8.59 0 15.994 5.075 19.377 12.37"/><path fill="url(#h)" d="M29.1 20.893c0 9.139 2.328 18.718 4.152 22.958 1.845 4.24 7.953 11.951 14.39 13.093 6.437 1.143 12.742-8.194 14.763-13.73 3.296-8.92 3.603-23.552 3.603-23.552s-10.501-9.557-20.321-8.656c-9.799.879-16.587 9.886-16.587 9.886" style="mix-blend-mode:multiply"/><path fill="#00042D" d="M33.075 18.653c0 7.074 1.824 14.478 3.274 17.752 1.428 3.295 5.47 10.15 11.27 10.15 5.12 0 9.996-6.35 11.578-10.612 2.593-6.92 2.834-18.256 2.834-18.256s-8.238-7.382-15.928-6.701c-7.71.68-13.028 7.667-13.028 7.667"/><path fill="url(#i)" d="M47.62 0c-7.14 0-19.4 14.764-19.4 26.078q0 .505.022.988c3.406-7.293 10.81-12.368 19.378-12.368 8.59 0 15.993 5.075 19.377 12.368q.022-.483.022-.988C67.019 14.764 55 0 47.619 0"/><path fill="#fff" d="M70.93 81.748H24.31a4.235 4.235 0 0 1-4.218-3.889l-2.636-30.296a4.24 4.24 0 0 1 4.218-4.613h51.892c2.504 0 4.438 2.13 4.24 4.613L75.17 77.86a4.256 4.256 0 0 1-4.24 3.889"/><path fill="url(#j)" d="M70.93 83.066H24.31a4.235 4.235 0 0 1-4.218-3.888l-2.636-30.296a4.24 4.24 0 0 1 4.218-4.614h51.892c2.504 0 4.438 2.131 4.24 4.614L75.17 79.178a4.256 4.256 0 0 1-4.24 3.888"/><g style="mix-blend-mode:multiply"><path fill="url(#k)" d="M24.244 44.268h-2.57a4.24 4.24 0 0 0-4.218 4.614l2.636 30.296a4.235 4.235 0 0 0 4.218 3.888h1.824z"/><path fill="url(#l)" d="M73.565 44.268h-2.57l-1.89 38.798h1.824a4.256 4.256 0 0 0 4.24-3.888l2.636-30.296c.198-2.483-1.735-4.614-4.24-4.614"/></g><defs><linearGradient id="a" x1="7.541" x2="66.96" y1="84.704" y2="-24.933" gradientUnits="userSpaceOnUse"><stop stop-color="#FF00C1"/><stop offset="1" stop-color="#F4AC24"/></linearGradient><linearGradient id="b" x1="69.876" x2="79.984" y1="86.585" y2="64.365" gradientUnits="userSpaceOnUse"><stop stop-color="#F4D63B" stop-opacity="0"/><stop offset="1" stop-color="#5C1CB2"/></linearGradient><linearGradient id="c" x1="94.739" x2="90.877" y1="50.432" y2="73.054" gradientUnits="userSpaceOnUse"><stop stop-color="#F4D63B" stop-opacity="0"/><stop offset="1" stop-color="#5C1CB2"/></linearGradient><linearGradient id="d" x1="-23.024" x2="18.107" y1="52.199" y2="-23.695" gradientUnits="userSpaceOnUse"><stop stop-color="#FF00C1"/><stop offset="1" stop-color="#F4AC24"/></linearGradient><linearGradient id="e" x1="24.528" x2="14.419" y1="86.585" y2="64.365" gradientUnits="userSpaceOnUse"><stop stop-color="#F4D63B" stop-opacity="0"/><stop offset="1" stop-color="#5C1CB2"/></linearGradient><linearGradient id="f" x1="-.336" x2="3.526" y1="50.432" y2="73.054" gradientUnits="userSpaceOnUse"><stop stop-color="#F4D63B" stop-opacity="0"/><stop offset="1" stop-color="#5C1CB2"/></linearGradient><linearGradient id="g" x1="-3.033" x2="44.942" y1="75.394" y2="-13.128" gradientUnits="userSpaceOnUse"><stop stop-color="#FF00C1"/><stop offset="1" stop-color="#F4AC24"/></linearGradient><linearGradient id="h" x1="14.2" x2="18.547" y1="55.264" y2="13.033" gradientUnits="userSpaceOnUse"><stop stop-color="#F4D63B" stop-opacity="0"/><stop offset="1" stop-color="#5C1CB2"/></linearGradient><linearGradient id="i" x1="-2.753" x2="44.607" y1="75.509" y2="-11.879" gradientUnits="userSpaceOnUse"><stop stop-color="#FF00C1"/><stop offset="1" stop-color="#F4AC24"/></linearGradient><linearGradient id="j" x1="75.327" x2="52.238" y1="43.74" y2="103.267" gradientUnits="userSpaceOnUse"><stop stop-color="#A76DFC"/><stop offset="1" stop-color="#5C1CB2"/></linearGradient><linearGradient id="k" x1="109.753" x2="108.016" y1="48.299" y2="85.077" gradientUnits="userSpaceOnUse"><stop stop-color="#fff" stop-opacity="0"/><stop offset="1" stop-color="#5C1CB2"/></linearGradient><linearGradient id="l" x1="161.315" x2="159.587" y1="50.64" y2="87.217" gradientUnits="userSpaceOnUse"><stop stop-color="#fff" stop-opacity="0"/><stop offset="1" stop-color="#5C1CB2"/></linearGradient></defs></svg>
